packages/kaspersky-hexa-ui-icons/src/iconsSVGs/48/Antitheft.svg

<svg xmlns="http://www.w3.org/2000/svg" width="48" height="48" fill="none" viewBox="0 0 48 48"><path fill="currentColor" fill-rule="evenodd" d="M24 0C14.0589 0 6 8.0589 6 18c0 14.29 16.64 28.8 17.35 29.41L24 48l.65-.56C25.36 46.8 42 32.29 42 18c0-9.9411-8.0589-18-18-18m0 45.3C20.92 42.46 8 29.85 8 18 8 9.1634 15.1634 2 24 2s16 7.1634 16 16c0 11.84-12.92 24.46-16 27.3m5.71-31.59L25.41 18l4.3 4.29-1.42 1.42-4.29-4.3-4.29 4.3-1.42-1.42 4.3-4.29-4.3-4.29 1.42-1.42 4.29 4.3 4.29-4.3z" clip-rule="evenodd"/></svg>

<svg width="48" height="48" viewBox="0 0 48 48" fill="none" xmlns="http://www.w3.org/2000/svg">
<path fill-rule="evenodd" clip-rule="evenodd" d="M24 0C14.0589 0 6 8.05887 6 18C6 32.29 22.64 46.8 23.35 47.41L24 48L24.65 47.44C25.36 46.8 42 32.29 42 18C42 8.05887 33.9411 0 24 0ZM24 45.3C20.92 42.46 8 29.85 8 18C8 9.16344 15.1634 2 24 2C32.8366 2 40 9.16344 40 18C40 29.84 27.08 42.46 24 45.3ZM29.71 13.71L25.41 18L29.71 22.29L28.29 23.71L24 19.41L19.71 23.71L18.29 22.29L22.59 18L18.29 13.71L19.71 12.29L24 16.59L28.29 12.29L29.71 13.71Z"  fill="currentColor"/>
</svg>
